resources/empty_transaction.svg

<svg width="56" height="72" viewBox="0 0 56 72" fill="none" xmlns="http://www.w3.org/2000/svg">
    <path d="M17.4074 2C15.2801 2 13.5556 3.69661 13.5556 5.78947V6.63158C13.5556 7.73615 12.6601 8.63158 11.5556 8.63158H5.85185C3.72453 8.63158 2 10.3282 2 12.4211V66.2105C2 68.3034 3.72453 70 5.85185 70H50.1481C52.2755 70 54 68.3034 54 66.2105V12.4211C54 10.3282 52.2755 8.63158 50.1481 8.63158H44.4444C43.3399 8.63158 42.4444 7.73615 42.4444 6.63158V5.78947C42.4444 3.69661 40.7199 2 38.5926 2H17.4074Z" stroke="#ECEEF2" stroke-width="4"/>
    <rect x="11" y="22" width="34" height="4" rx="2" fill="#ECEEF2"/>
    <path d="M17.8106 6.75746C17.9219 6.3123 18.3219 6 18.7808 6H37.2192C37.6781 6 38.0781 6.3123 38.1894 6.75746L38.6894 8.75746C38.8472 9.38861 38.3698 10 37.7192 10H18.2808C17.6302 10 17.1528 9.38861 17.3106 8.75746L17.8106 6.75746Z" fill="#ECEEF2"/>
    <rect x="11" y="35" width="34" height="4" rx="2" fill="#ECEEF2"/>
    <rect x="11" y="48" width="23" height="4" rx="2" fill="#ECEEF2"/>
</svg>

<svg width="56" height="72" fill="none" xmlns="http://www.w3.org/2000/svg"><path d="M17.407 2c-2.127 0-3.851 1.697-3.851 3.79v.842a2 2 0 0 1-2 2H5.852C3.725 8.632 2 10.328 2 12.422V66.21C2 68.303 3.725 70 5.852 70h44.296C52.275 70 54 68.303 54 66.21V12.421c0-2.093-1.724-3.79-3.852-3.79h-5.704a2 2 0 0 1-2-2V5.79C42.444 3.697 40.72 2 38.593 2H17.407z" stroke="#ECEEF2" stroke-width="4"/><rect x="11" y="22" width="34" height="4" rx="2" fill="#ECEEF2"/><path d="M17.81 6.757A1 1 0 0 1 18.78 6h18.44a1 1 0 0 1 .97.757l.5 2A1 1 0 0 1 37.72 10H18.28a1 1 0 0 1-.97-1.243l.5-2z" fill="#ECEEF2"/><rect x="11" y="35" width="34" height="4" rx="2" fill="#ECEEF2"/><rect x="11" y="48" width="23" height="4" rx="2" fill="#ECEEF2"/></svg>
